X:1
T:Title
%%score { ( 1 3 ) | ( 2 4 ) }
L:1/8
Q:1/4=110
M:4/4
K:Db
V:1 treble nm="Grand Piano"
V:3 treble 
V:2 bass 
V:4 bass 
V:1
 [A,D]2 [A,DF]2 [A,FA]2 [A,DF]2 | [DFA]2 [DFd]2 [DFd]4 | [A,FA]2 [A,DF]2 [A,CG]2 [A,CE]2 | %3
w: F.~H.~Shaul * * *|||
 F2 z2 z4 | D2 F2 [FA]2 [Ad]2 | [Bd]2 [Bd]2 B2- [=GB]2 | [Ec]2 [Fd]2 [Ec]2 [DB]2 | A8 | %8
w: |||||
 [Fd]2 [FB]2 [FA]2 F2 | G8 | [Gc]2 [GB]2 [EG]2 [GB]2 | A2- [GA-]2 [FA-]2 [GA]2 | %12
w: ||||
 D2 F2 [FA]2 [Fd]2 |[M:9/8] z3 z B2- B3 | %14
w: ||
[M:4/4] [FA]2 [Fd]2 [DF]2 [CE]2[Q:1/4=108][Q:1/4=107][Q:1/4=105][Q:1/4=104][Q:1/4=102][Q:1/4=100][Q:1/4=99][Q:1/4=97][Q:1/4=95][Q:1/4=94][Q:1/4=92][Q:1/4=91][Q:1/4=89][Q:1/4=87][Q:1/4=86][Q:1/4=84] | %15
w: |
 D8 |] %16
w: |
V:2
 D,2 D,2 D,2 D,2 | D,2 D,2 D,4 | D,2 D,2 A,,2 A,,2 | D,2 C,2 E,4 | %4
 [D,A,]2 [D,A,D]2 [D,D]2 [D,A,]2 | [G,,G,]2 [G,,G,]2 [G,,G,]2 [=G,,=G,]2 | %6
 [A,,A,]2 [A,,A,]2 [E,A,]2 [E,=G,]2 | E,F,G,A, C4 | [D,D]2 [D,D]2 [D,D]2 [D,A,D]2 | %9
 [E,A,E]2 [B,,B,]2 [A,,E,A,]4 | [A,,A,]2 [A,,A,]2 [A,,A,]2 [C,A,]2 | %11
 [D,A,]2 [E,A,]2 [F,A,]2 [E,A,]2 | [D,A,]2 [D,A,D]2 [D,A,]2 [D,A,]2 |[M:9/8] z3 z G2 z3 | %14
[M:4/4] [A,,A,]2 [A,,A,]2 [A,,A,]2 [A,,G,]2 | [F,A,]2 z2 z4 |] %16
V:3
 x8 | x8 | x8 | [A,A]2- [A,-EA-]2 [A,GA]4 | x8 | z4 G2 z2 | x8 | CDEF G4 | x8 | z2 D2 [CE]4 | x8 | %11
 F2 z2 z4 | x8 |[M:9/8] [Gd]2 [Gd]- [Gd] z z _F3 |[M:4/4] x8 | z2 B,2 A,4 |] %16
V:4
 x8 | x8 | x8 | x8 | x8 | x8 | x8 | A,,8 | x8 | x8 | x8 | x8 | x8 | %13
[M:9/8] [G,,G,]2 [G,,G,]- [G,,G,] [G,B,]2- [G,B,]3 |[M:4/4] x8 | D,2- [D,-G,]2 [D,F,]4 |] %16

